packages/elvis-assets-icons/icons/svg/src/electricity_safety.svg

<svg width="24" height="24" viewBox="0 0 24 24" fill="none" xmlns="http://www.w3.org/2000/svg">
<path fill-rule="evenodd" clip-rule="evenodd" d="M20.5393 5.71526L21.2847 0.5L17 8.28474H19.4607L18.7153 13.5L23 5.71526L20.5393 5.71526Z" fill="black"/>
<path fill-rule="evenodd" clip-rule="evenodd" d="M5 0C5.41421 0 5.75 0.335786 5.75 0.75V4.5H10.25V0.75C10.25 0.335786 10.5858 0 11 0C11.4142 0 11.75 0.335786 11.75 0.75V4.5H12.5C13.0967 4.5 13.669 4.73705 14.091 5.15901C14.5129 5.58097 14.75 6.15326 14.75 6.75V9.75C14.75 11.5402 14.0388 13.2571 12.773 14.523C11.6852 15.6108 10.2643 16.289 8.75 16.4582V18.75C8.75 19.3467 8.98705 19.919 9.40901 20.341C9.83097 20.7629 10.4033 21 11 21C11.5967 21 12.169 20.7629 12.591 20.341C13.0129 19.919 13.25 19.3467 13.25 18.75C13.25 17.7554 13.6451 16.8016 14.3483 16.0983C15.0516 15.3951 16.0054 15 17 15C17.9946 15 18.9484 15.3951 19.6516 16.0983C20.3549 16.8016 20.75 17.7554 20.75 18.75V23.25C20.75 23.6642 20.4142 24 20 24C19.5858 24 19.25 23.6642 19.25 23.25V18.75C19.25 18.1533 19.0129 17.581 18.591 17.159C18.169 16.7371 17.5967 16.5 17 16.5C16.4033 16.5 15.831 16.7371 15.409 17.159C14.9871 17.581 14.75 18.1533 14.75 18.75C14.75 19.7446 14.3549 20.6984 13.6517 21.4017C12.9484 22.1049 11.9946 22.5 11 22.5C10.0054 22.5 9.05161 22.1049 8.34835 21.4017C7.64509 20.6984 7.25 19.7446 7.25 18.75V16.4582C5.73574 16.289 4.31485 15.6108 3.22703 14.523C1.96116 13.2571 1.25 11.5402 1.25 9.75V6.75C1.25 6.15326 1.48705 5.58097 1.90901 5.15901C2.33097 4.73705 2.90326 4.5 3.5 4.5H4.25V0.75C4.25 0.335786 4.58579 0 5 0ZM11.7123 13.4623C10.7277 14.4469 9.39239 15 8 15C6.60761 15 5.27226 14.4469 4.28769 13.4623C3.30312 12.4777 2.75 11.1424 2.75 9.75V6.75C2.75 6.55109 2.82902 6.36032 2.96967 6.21967C3.11032 6.07902 3.30109 6 3.5 6H5H11H12.5C12.6989 6 12.8897 6.07902 13.0303 6.21967C13.171 6.36032 13.25 6.55109 13.25 6.75V9.75C13.25 11.1424 12.6969 12.4777 11.7123 13.4623ZM7.5 7.5C7.08579 7.5 6.75 7.83579 6.75 8.25C6.75 8.66421 7.08579 9 7.5 9H10.5C10.9142 9 11.25 8.66421 11.25 8.25C11.25 7.83579 10.9142 7.5 10.5 7.5H7.5Z" fill="black"/>
</svg>

<svg width="24" height="24" fill="none" xmlns="http://www.w3.org/2000/svg"><path fill-rule="evenodd" clip-rule="evenodd" d="M20.54 5.715L21.284.5 17 8.285h2.46l-.745 5.215L23 5.715h-2.46zM5 0a.75.75 0 01.75.75V4.5h4.5V.75a.75.75 0 011.5 0V4.5h.75a2.25 2.25 0 012.25 2.25v3a6.75 6.75 0 01-6 6.708v2.292a2.25 2.25 0 004.5 0 3.75 3.75 0 017.5 0v4.5a.75.75 0 01-1.5 0v-4.5a2.25 2.25 0 00-4.5 0 3.75 3.75 0 01-7.5 0v-2.292a6.75 6.75 0 01-6-6.708v-3A2.25 2.25 0 013.5 4.5h.75V.75A.75.75 0 015 0zm6.712 13.462A5.25 5.25 0 012.75 9.75v-3A.75.75 0 013.5 6h9a.75.75 0 01.75.75v3a5.25 5.25 0 01-1.538 3.712zM7.5 7.5a.75.75 0 000 1.5h3a.75.75 0 000-1.5h-3z" fill="#000"/></svg>
